packages/dnb-ui-lib/assets/icons/reset_medium.svg

<svg width="24" height="24" viewBox="0 0 24 24" fill="none" xmlns="http://www.w3.org/2000/svg">
<path d="M8.05424 22.5384C8.44213 22.6837 8.87437 22.487 9.01967 22.0991C9.16496 21.7112 8.9683 21.279 8.5804 21.1337L8.05424 22.5384ZM13.3222 21.6612C12.9117 21.7168 12.6241 22.0946 12.6797 22.5051C12.7353 22.9156 13.1131 23.2032 13.5236 23.1476L13.3222 21.6612ZM1.5 21.75C1.08579 21.75 0.75 22.0858 0.75 22.5C0.75 22.9142 1.08579 23.25 1.5 23.25V21.75ZM8.49947 22.5V23.25C8.91368 23.25 9.24947 22.9142 9.24947 22.5H8.49947ZM9.24947 15.5005C9.24947 15.0863 8.91368 14.7505 8.49947 14.7505C8.08526 14.7505 7.74947 15.0863 7.74947 15.5005H9.24947ZM2.25 12C2.25 6.61522 6.61522 2.25 12 2.25V0.75C5.7868 0.75 0.75 5.7868 0.75 12H2.25ZM12 2.25C17.3848 2.25 21.75 6.61522 21.75 12H23.25C23.25 5.7868 18.2132 0.75 12 0.75V2.25ZM8.5804 21.1337C4.88122 19.7481 2.25 16.1804 2.25 12H0.75C0.75 16.826 3.78848 20.9405 8.05424 22.5384L8.5804 21.1337ZM21.75 12C21.75 16.936 18.0813 21.0164 13.3222 21.6612L13.5236 23.1476C19.0164 22.4035 23.25 17.6967 23.25 12H21.75ZM1.5 23.25H8.49947V21.75H1.5V23.25ZM9.24947 22.5V15.5005H7.74947V22.5H9.24947Z" fill="black"/>
</svg>

<svg width="24" height="24" viewBox="0 0 24 24" fill="none" xmlns="http://www.w3.org/2000/svg"><path d="M8.054 22.538a.75.75 0 00.526-1.404l-.526 1.404zm5.268-.877a.75.75 0 10.202 1.487l-.202-1.487zM1.5 21.75a.75.75 0 000 1.5v-1.5zm7 .75v.75a.75.75 0 00.75-.75H8.5zm.75-7a.75.75 0 00-1.5 0h1.5zm-7-3.5c0-5.385 4.365-9.75 9.75-9.75V.75C5.787.75.75 5.787.75 12h1.5zM12 2.25c5.385 0 9.75 4.365 9.75 9.75h1.5C23.25 5.787 18.213.75 12 .75v1.5zM8.58 21.134A9.754 9.754 0 012.25 12H.75c0 4.826 3.038 8.94 7.304 10.538l.526-1.404zM21.75 12c0 4.936-3.669 9.016-8.428 9.661l.202 1.487c5.492-.744 9.726-5.451 9.726-11.148h-1.5zM1.5 23.25h7v-1.5h-7v1.5zm7.75-.75v-7h-1.5v7h1.5z" fill="#000"/></svg>
